X: 1085
T: Hâk Hâk Diyen Âşıklar
C: ?
O: Turkey
F: http://compmusic.upf.edu/node/140
N: hicaz-humayun--ilahi--turkmen--hak_hak--
N: makam= hicaz-humayun
N: form= ilahi
N: usul= turkmen = 18/8
M: 18/8
L: 1/16
K: C _7/8B ^c  
Q: 1/4=192
%%MIDI tuningsystem comma53
A4 d4 B2d2 c6B2 e2d2 c2B2 A6G2  | \
w:  Hâk  hâk  di *  yen  *  â *  şık *  lar    | 
A4 d4 B2d2 c6B2 e2d2 c2B2 A6G2  | 
w:  Hâk  hâk  di *  yen  *  â *  şık *  lar    | 
z16  | A4A2B2c2B2A2G2  | A2BcB2A2A4z4  | \
w:  |  Ci ğer *  le *  ri   |  ya *  *  nık *  lar    | 
A4A2B2c2B2A2G2  | 
w:  Ci ğer *  le *  ri   | 
A2BcB2A2A4z4  | z36  | A4 d4 B2d2 c6A2 e2d2 c2B2 A6G2  | \
w:  ya *  *  nık *  lar    |  |  Se her de  *  u *  ya *  nık *  lar    | 
A4 d4 B2d2 c6A2 e2d2 c2B2 A6G2  | 
w:  Se her de  *  u *  ya *  nık *  lar    | 
z16  | G4A2B2c2B2A2G2  | A2BcB2A2A4z4  | \
w:  |  Nak şî *  ben *  dî  |  ler *  *  dir  *  bu    | 
G4A2B2c2B2A2G2  | 
w:  Lâ i *  lâ *  he   | 
A2BcB2A2A4z4  | |


